!!!SOCIAL_FUNCTION: drunken-man dance songs
!!!PDT:	1943
!!!LING_GROUP: Muskogean
!!!LANG: Non-Tone
Specific Region: Oklahoma, California, Mississippi, Louisiana, Texas, Alabama
!!!REG: Southeast
!!!COM: Anon.
!!!OTL: Drunken-man Dance Song (e)
!!!ODT: <1933//
!!!MPN: Lysander Tubby and Gus Willis
!!!MLC: Philadelphia, Mississippi, United States of America
!! Song was recorded in January 1933.
!!!AGN: monody
!!!AMT: simple duple
!!!RWG: Transcribed pitches, durations, and meters are only approximate.
**kern
*ICvox
*Imale
*clefF4
*k[f#]
*M2/4
*MM96
*[A,B,B,C]
*>A
=1-
8G
8G
8G
8G
=2
8G
8G
4G
=3
4B
8G
8G
=4
4B
(8B
8G)
=5
4A
(8A
8G)
=6
8G
8G
8G
8r
=7
(8.A
16G)
8G
8A
=8
8G
8G
8G
8r
=9
8G
8G
8G
8G
=10
8G
8G
4G
*>B
=!|:11
4d
8B
8B
=12
4B
(8B
8G)
=13
4A
(8A
8G)
=14
8G
8G
4G
=15
8.A+
16G
8G
8A
=16
8G
8G
8G
8r
=17
8G
8G
8G
8G
=18
8G
8G
4G
=19
4B
8G
8G
=20
4B
8G
8G
=21
4A
(8A
8G)
=22
8G
8G
4G
=23
(8.A+
16G)
8G
8A
=24
8G
8G
8G
8r
=25
8G
8G
8G
8G
=26
8G
8G
4G
=27
4B
8G
8G
=28
4B
(8B
8G)
=29
4A
(8A
8G)
=30
8G
8G
4G
=31
(8.A+
16G)
8G
8A
=32
8G
8G
8G
8r
=33
8G
8G
8G
8G
=34
8G
8G
4G
=:|!35
*>C
8.B
16A
8A
8d
=36
4.d
8r
=37
4c
8.A
16G
=38
4G
8A
16G
16r
=39
4.d
8B
=40
4B
(8B
8G)
=41
4A
8A
8G
=42
8G
8G
4G
=43
(8A
8G)
8E
8A+
=44
8G
8G
8G
8r
=45
8G
8G
8G
8G
=46
8G
8G
4G
=47
4B
8G
8G
=48
4B
(8B
8G)
=49
4A
(8A
8G)
=50
8G
8G
4G
=51
8A
8G
8E
8A+
=52
8G
8G
8G
8r
=53
8.G
16E
4G
=54
8G
8G
8G
8r
==
*-
!!!CNT: Choctaw
!!!TXO: Choctaw
!!!OCY: United States
!!!OCL: Frances Densmore
!!!YOR: Frances Densmore, "Choctaw Music"
!!!YOR: Bulletin 136, page 147, No. 25
!!!PPR: Smithsonian Institution, Bureau of American Ethnology
!!!PPR: Government Printing Office
!!!PDT: 1943
!!!PPP: Washington, DC, United States of America
!!!YEC: Electronic Copyright 2000 David Huron
!!!YER: August 2000
!!!YEN: United States of America
!!!ENC: David Huron
!!!RDT: August 28, 2000
!!!EEV: Release 1.0
!!!AIN: vox
